images/icons/x.svg

<svg fill="none" height="24" viewBox="0 0 24 24" width="24" xmlns="http://www.w3.org/2000/svg"><path d="m18.9014 1.16016h3.6802l-8.0401 9.18914 9.4585 12.5044h-7.4059l-5.8006-7.5838-6.63719 7.5838h-3.682384l8.599634-9.8288-9.07356-11.86474h7.59394l5.24326 6.93192zm-1.2916 19.49084h2.0392l-13.16311-17.40381h-2.1883z" fill="#fff"/></svg>

<svg width="24" height="24" viewBox="0 0 24 24" fill="none" xmlns="http://www.w3.org/2000/svg">
<path d="M18.9014 1.16016H22.5816L14.5415 10.3493L24 22.8537H16.5941L10.7935 15.2699L4.15631 22.8537H0.473926L9.07356 13.0249L0 1.16016H7.59394L12.8372 8.09208L18.9014 1.16016ZM17.6098 20.651H19.649L6.48589 3.24719H4.29759L17.6098 20.651Z" fill="white"/>
</svg>
